X:44
T:Nikkeli Markka (When will you pay me back my nickel mark)
M:2/4
L:1/16
Q:1/4=80
S:arr. Eira Mattsson (Washington DC Finlandia Foundation) ~1976
R:jenkka
K:Am
"Am" EEcB A2EF | "Dm" G2FF "E7" D2B,2 |
"Am" CCDD EEDC | "E7" B,2EF EDCB, | !
"Am" EEcB A2EF | "Dm" GGFF "E7" D2B,B, |
"Am" E2DC "E7" B,DCB, | "Am" A,2A,2 A,2 z2 | !
"E7" B,B,CC DDB,B, | "Am" C2D2 E2 z2 |
"E7" EE^FF ^GGcB | "Dm" A2F2 "Am" E2 z2 | !
"E7" B,B,CC DDB,B, | "Am" C2D2 E2 z2 |
"E7" EE^FF ^GGcB | "Am" A2A2 A2 z2 ||
